apps/android/app/src/main/assets/luts/AA2_COLOR_V.cube
TITLE "Generated by Resolve"
LUT_3D_SIZE 9
0 0 0.000793469
0.0359197 0 0
0.151904 0 0
0.401312 0 0
0.706432 0 0
0.967071 0 0
1 0 0
1 0 0
1 0 0
0 0.0602579 0.00138857
0.0339666 0.0529946 0
0.153506 0.0345312 0
0.408118 0 0
0.713405 0 0
0.971069 0 0
1 0 0
1 0 0
1 0 0
0 0.203616 0.00289921
0.0263523 0.200793 0
0.151431 0.191684 0
0.413794 0.134615 0
0.719921 0.00109865 0
0.97464 0 0
1 0 0
1 0 0
1 0 0
0 0.493828 0.00973526
3.0518e-05 0.49424 0.00537118
0.124575 0.492134 0
0.409827 0.472099 0
0.72108 0.42031 0
0.97438 0.342931 0
1 0.306874 0
1 0.297154 0
1 0.299901 0
0 0.810712 0.0269474
0 0.811734 0.0216983
0.0493629 0.811063 0.00849927
0.393194 0.800092 0
0.715023 0.771878 0
0.968978 0.735241 0
1 0.721157 0
1 0.718456 0
1 0.721172 0
0 1 0.0471046
0 1 0.0415656
0.000732433 1 0.0277562
0.372686 1 0
0.7075 0.999878 0
0.961654 0.990768 0
1 0.984985 0
1 0.982132 0
1 0.983352 0
0 1 0.0560006
0 1 0.0501411
0.000106813 1 0.035523
0.372198 1 0
0.710613 1 0
0.961654 1 0
1 1 0
1 1 0
1 1 0
0 1 0.0610056
0 1 0.0548867
0 1 0.0394293
0.37882 1 0
0.717479 1 0
0.964065 1 0
1 1 0
1 1 0
1 1 0
0 1 0.0632486
0 1 0.0568856
0 1 0.0406348
0.390173 1 0
0.726482 1 0
0.96817 1 0
1 1 0
1 1 0
1 1 0
0 0 0.0609445
0.0287785 0 0.0565499
0.147448 0 0.0449683
0.400198 0 0
0.706233 0 0
0.966812 0 0
1 0 0
1 0 0
1 0 0
0 0.0507973 0.0639658
0.0268406 0.0434577 0.0593729
0.14905 0.0248264 0.0473945
0.40705 0 0
0.713207 0 0
0.970794 0 0
1 0 0
1 0 0
1 0 0
0 0.199039 0.0681773
0.0191348 0.196124 0.0633707
0.146883 0.18677 0.0509804
0.412726 0.127672 0
0.719722 0.00062562 0
0.974365 0 0
1 0 0
1 0 0
1 0 0
0 0.492607 0.0784619
0 0.493004 0.0734722
0.119112 0.490867 0.0607309
0.408713 0.470649 0.00456245
0.720592 0.418631 0
0.974075 0.340825 0
1 0.304677 0
1 0.29485 0
1 0.297688 0
0 0.810086 0.0963455
0 0.811093 0.0917372
0.0428016 0.810681 0.0790112
0.391974 0.799634 0.0150301
0.714748 0.771359 0
0.968582 0.734722 0
1 0.720714 0
1 0.717983 0
1 0.720668 0
0 1 0.11458
0 1 0.110201
0.00103761 1 0.0984665
0.371435 1 0.0329595
0.707225 0.999725 0
0.961196 0.990753 0
1 0.984329 0
1 0.981445 0
1 0.982696 0
0 1 0.122591
0 1 0.118166
0 1 0.106264
0.371008 1 0.0397345
0.710369 1 0
0.961196 1 0
1 1 0
1 1 0
1 1 0
0 1 0.127291
0 1 0.122774
0 1 0.110491
0.377661 1 0.04271
0.716976 1 0
0.963607 1 0
1 1 0
1 1 0
1 1 0
0 1 0.1299
0 1 0.125261
0 1 0.112505
0.388968 1 0.0427558
0.726223 1 0
0.967712 1 0
1 1 0
1 1 0
1 1 0
0 0 0.191867
0.0106355 0 0.190402
0.134417 0 0.184985
0.395636 0 0.151659
0.704067 0 0.0374151
0.965118 0 0
1 0 0
1 0 0
1 0 0
0 0.025391 0.197131
0.00753796 0.0178683 0.195636
0.135576 0.00244144 0.190341
0.402319 0 0.156985
0.710918 0 0.0442512
0.968994 0 0
1 0 0
1 0 0
1 0 0
0 0.184604 0.204059
0.00274662 0.181201 0.20293
0.132311 0.170825 0.197864
0.407706 0.105043 0.164111
0.717266 7.62951e-05 0.0542458
0.972427 0 0
1 0 0
1 0 0
1 0 0
0 0.486946 0.214908
0 0.487221 0.213779
0.101061 0.484916 0.208789
0.403235 0.464225 0.175311
0.718151 0.411063 0.0696269
0.971984 0.331456 0
1 0.294163 0
1 0.283772 0
1 0.28658 0
0 0.807141 0.22948
0 0.808103 0.228367
0.0215305 0.807355 0.223499
0.385916 0.796139 0.190829
0.711833 0.767605 0.0923934
0.966201 0.730755 0
1 0.71696 0
1 0.713848 0
1 0.716442 0
0 1 0.244556
0 1 0.243412
0.000350958 1 0.238376
0.364721 1 0.206775
0.704128 0.999207 0.115053
0.958694 0.989746 0
1 0.980957 0
1 0.978012 0
1 0.979232 0
0 1 0.253895
0 1 0.252689
0 1 0.247639
0.364034 1 0.216236
0.707134 1 0.128191
0.958572 1 0.00137331
1 1 0
1 1 0
1 1 0
0 1 0.261723
0 1 0.260487
0 1 0.255268
0.370535 1 0.223713
0.713878 1 0.138537
0.960861 1 0.00268559
1 1 0
1 1 0.00120546
1 1 0.00340276
0 1 0.268193
0 1 0.266911
0 1 0.261524
0.381628 1 0.22974
0.722698 1 0.147509
0.964797 1 0.0120546
1 1 0.00920119
1 1 0.00840772
1 1 0.010605
0 0 0.451194
0 0 0.452125
0.0652934 0 0.451423
0.372259 0 0.43917
0.691661 0 0.404791
0.956298 0 0.353567
1 0 0.32874
1 0 0.324025
1 0 0.325765
0 0 0.459083
0 0 0.459968
0.0647593 0 0.459236
0.378607 0 0.446662
0.698314 0 0.412543
0.959854 0 0.362387
1 0 0.339559
1 0 0.335042
1 0 0.337224
0 0.107301 0.46772
0 0.10161 0.468574
0.0584573 0.0857862 0.467796
0.383658 0.0229038 0.454932
0.704463 0 0.421149
0.963088 0 0.372488
1 0 0.351461
1 0 0.347173
1 0 0.349767
0 0.460273 0.47805
0 0.460334 0.478889
0.0225986 0.457649 0.47808
0.37847 0.435248 0.465003
0.704982 0.377646 0.431312
0.962371 0.28925 0.384817
1 0.245075 0.365682
1 0.231861 0.361685
1 0.234714 0.36466
0 0.791714 0.490227
0 0.792584 0.491035
0 0.791959 0.490211
0.358923 0.780072 0.476967
0.698161 0.750683 0.444114
0.956146 0.712825 0.399435
1 0.698573 0.381979
1 0.69546 0.377829
1 0.697932 0.380758
0 1 0.502922
0 1 0.503685
0 1 0.50277
0.335668 1 0.489372
0.690196 0.994568 0.456611
0.948241 0.977905 0.413947
1 0.967254 0.397696
1 0.964126 0.393683
1 0.96527 0.396597
0 1 0.512886
0 1 0.513573
0 1 0.512489
0.334188 1 0.498878
0.692866 1 0.466239
0.947845 1 0.424994
1 1 0.409995
1 1 0.405753
1 1 0.409171
0 1 0.521874
0 1 0.52253
0 1 0.521324
0.340597 1 0.5075
0.699077 1 0.474983
0.949859 1 0.435065
1 1 0.421241
1 1 0.417639
1 1 0.421042
0 1 0.530266
0 1 0.530892
0 1 0.529564
0.351263 1 0.515465
0.707713 1 0.483391
0.953582 1 0.44445
1 1 0.431769
1 1 0.428473
1 1 0.431876
0 0 0.730983
0 0 0.732311
0 0 0.732723
0.321828 0 0.726207
0.666545 0 0.707378
0.938491 0 0.680812
1 0 0.669688
1 0 0.66836
1 0 0.670146
0 0 0.738369
0 0 0.739666
0 0 0.740047
0.328069 0 0.733257
0.672969 0 0.714107
0.942031 0 0.688075
1 0 0.677546
1 0 0.676234
1 0 0.677943
0 0 0.746303
0 0 0.747524
0 0 0.747799
0.332967 0 0.740749
0.679042 0 0.721569
0.945098 0 0.695964
1 0 0.686107
1 0 0.68481
1 0 0.686702
0 0.404944 0.755001
0 0.404746 0.756191
0 0.401358 0.756436
0.326055 0.375097 0.749386
0.679149 0.305547 0.730175
0.943969 0.186389 0.705135
1 0.111131 0.695689
1 0.0896162 0.694423
1 0.0952163 0.696773
0 0.761425 0.765332
0 0.762219 0.766506
0 0.76144 0.766705
0.302266 0.748852 0.759197
0.671687 0.718227 0.739986
0.937346 0.677989 0.715572
1 0.662928 0.707042
1 0.659434 0.705791
1 0.661997 0.70808
0 0.999283 0.775647
0 0.999054 0.776776
0 0.998413 0.776898
0.273579 0.994186 0.769192
0.663066 0.981537 0.75021
0.928954 0.952987 0.726482
1 0.942168 0.718257
1 0.938842 0.717006
1 0.939956 0.719707
0 1 0.784512
0 1 0.785595
0 1 0.785626
0.271565 1 0.777722
0.665614 1 0.758679
0.928389 1 0.735317
1 1 0.727916
1 1 0.72668
1 1 0.729458
0 1 0.792782
0 1 0.793851
0 1 0.793774
0.279561 1 0.785931
0.671839 1 0.766613
0.930236 1 0.744091
1 1 0.737011
1 1 0.735912
1 1 0.738491
0 1 0.800916
0 1 0.801953
0 1 0.801801
0.291447 1 0.7935
0.680919 1 0.774121
0.933974 1 0.75201
1 1 0.745541
1 1 0.744381
1 1 0.746975
0 0 0.953765
0 0 0.954208
0 0 0.953918
0.252338 0 0.948409
0.636347 0 0.933593
0.917861 0 0.913588
1 0 0.904921
1 0 0.903304
1 0 0.90396
0 0 0.957443
0 0 0.95787
0 0 0.957534
0.260792 0 0.951812
0.643702 0 0.936873
0.921721 0 0.917052
1 0 0.908766
1 0 0.907027
1 0 0.90779
0 0 0.961486
0 0 0.961883
0 0 0.961517
0.267399 0 0.95555
0.650401 0 0.94049
0.925093 0 0.920867
1 0 0.912993
1 0 0.911238
1 0 0.912139
0 0.333959 0.966201
0 0.333852 0.966583
0 0.329931 0.966186
0.258976 0.297673 0.960128
0.650813 0.205097 0.94493
0.924331 0.0482185 0.925536
1 0.0380713 0.917937
1 0.034165 0.915969
1 0.0370336 0.916701
0 0.727962 0.972076
0 0.728923 0.972442
0 0.727932 0.972
0.229648 0.715084 0.965454
0.643397 0.682643 0.949859
0.917556 0.640696 0.930465
0.999908 0.625025 0.923095
1 0.621073 0.921035
1 0.623987 0.921904
0 0.988235 0.977737
0 0.988602 0.977829
0 0.988556 0.97705
0.190707 0.980575 0.970169
0.634607 0.956847 0.954528
0.909468 0.927504 0.935332
0.995468 0.916533 0.928313
1 0.913252 0.926314
1 0.914565 0.927306
0 1 0.981537
0 1 0.981643
0 1 0.980758
0.191394 1 0.973663
0.637858 1 0.957839
0.909255 0.999954 0.938933
0.992004 0.995911 0.932265
1 0.991699 0.930266
1 0.991791 0.931304
0 1 0.984802
0 1 0.985
0 1 0.984039
0.207324 1 0.97673
0.645212 1 0.960723
0.911513 1 0.942214
0.990692 1 0.935805
1 1 0.933883
1 1 0.93492
0 1 0.987915
0 1 0.988159
0 1 0.987106
0.223362 1 0.979553
0.654948 1 0.963317
0.915557 1 0.945083
0.991012 1 0.939132
1 1 0.937285
1 1 0.938231
0 0 1
0 0 1
0 0 1
0.22002 0 1
0.624567 0 1
0.910124 0 0.989303
1 0 0.980392
1 0 0.977874
1 0 0.977432
0 0 1
0 0 1
0 0 1
0.230579 0 1
0.632593 0 1
0.914366 0 0.989578
1 0 0.980987
1 0 0.978454
1 0 0.978134
0 0 1
0 0 1
0 0 1
0.239109 0 1
0.639902 0 1
0.91812 0 0.98999
1 0 0.98175
1 0 0.979187
1 0 0.978988
0 0.304204 1
0 0.304417 1
0 0.300481 1
0.231327 0.265522 1
0.640848 0.155795 1
0.91754 0.0400854 0.99115
1 0.019791 0.983246
1 0.0099031 0.980652
1 0.00958267 0.980591
0 0.716045 1
0 0.717189 1
0 0.71667 1
0.198703 0.70341 1
0.633753 0.670787 1
0.910994 0.627894 0.993194
0.999435 0.612055 0.985641
1 0.608499 0.983047
1 0.611704 0.983108
0 0.984222 1
0 0.984283 1
0 0.983001 1
0.157382 0.972488 1
0.625605 0.948455 1
0.902998 0.919127 0.995453
0.989364 0.908232 0.988159
1 0.904875 0.985519
1 0.906355 0.985702
0 1 1
0 1 1
0 1 1
0.164767 1 1
0.629389 1 1
0.90312 0.997894 0.996384
0.98616 0.988144 0.989364
1 0.984039 0.986694
1 0.984237 0.986847
0 1 1
0 1 1
0 1 1
0.181369 1 1
0.637034 1 1
0.905715 1 0.996719
0.985122 1 0.990112
1 1 0.987472
1 1 0.98764
0 1 1
0 1 1
0 1 1
0.198749 1 1
0.647364 1 1
0.910231 1 0.996811
0.985702 1 0.990555
1 1 0.987991
1 1 0.988159
0 0 1
0 0 1
0 0 1
0.208957 0 1
0.621271 0 1
0.907576 0 1
1 0 0.999969
1 0 1
1 0 1
0 0 1
0 0 1
0 0 1
0.219699 0 1
0.629297 0 1
0.911818 0 1
1 0 1
1 0 1
1 0 1
0 0 1
0 0 1
0 0 1
0.228672 0 1
0.636683 0 1
0.915663 0 1
1 0 1
1 0 1
1 0 1
0 0.293248 1
0 0.293538 1
0 0.289509 1
0.220249 0.252491 1
0.637446 0.133837 1
0.915297 0.0363317 1
0.999924 0.0109102 1
1 0.000610361 1
1 0 1
0 0.711955 1
0 0.71313 1
0 0.712642 1
0.186297 0.699565 1
0.630716 0.666407 1
0.908492 0.623713 1
0.997009 0.607401 1
1 0.603861 1
1 0.607187 1
0 0.981109 1
0 0.981201 1
0 0.979919 1
0.14699 0.96936 1
0.62237 0.945373 1
0.900725 0.915846 1
0.986816 0.905013 1
1 0.901823 1
1 0.903365 1
0 1 1
0 1 1
0 1 1
0.155749 1 1
0.626368 1 1
0.900938 0.995483 1
0.983688 0.984863 1
1 0.980774 1
1 0.980987 1
0 1 1
0 1 1
0 1 1
0.169848 1 1
0.63418 1 1
0.903609 1 1
0.982712 1 1
1 1 1
1 1 1
0 1 1
0 1 1
0 1 1
0.188724 1 1
0.644968 1 1
0.908064 1 1
0.983368 1 1
1 1 1
1 1 1
0 0 1
0 0 1
0 0 1
0.209995 0 1
0.622538 0 1
0.908278 0 1
1 0 1
1 0 1
1 0 1
0 0 1
0 0 1
0 0 1
0.221271 0 1
0.630442 0 1
0.912612 0 1
1 0 1
1 0 1
1 0 1
0 0 1
0 0 1
0 0 1
0.230411 0 1
0.637781 0 1
0.916442 0 1
1 0 1
1 0 1
1 0 1
0 0.294926 1
0 0.295628 1
0 0.291188 1
0.222507 0.254597 1
0.638788 0.135744 1
0.915892 0.038819 1
0.999939 0.0113985 1
1 0.000595102 1
1 0 1
0 0.713436 1
0 0.714611 1
0 0.714107 1
0.188495 0.70071 1
0.631785 0.667903 1
0.909072 0.624949 1
0.99707 0.609049 1
1 0.605509 1
1 0.608881 1
0 0.981765 1
0 0.981842 1
0 0.98056 1
0.150683 0.969955 1
0.623804 0.9458 1
0.901198 0.916487 1
0.986877 0.90573 1
1 0.902525 1
1 0.903944 1
0 1 1
0 1 1
0 1 1
0.159167 1 1
0.627848 1 1
0.901442 0.995514 1
0.98378 0.984955 1
1 0.980865 1
1 0.981094 1
0 1 1
0 1 1
0 1 1
0.172473 1 1
0.635676 1 1
0.904112 1 1
0.982803 1 1
1 1 1
1 1 1
0 1 1
0 1 1
0 1 1
0.190829 1 1
0.646174 1 1
0.908705 1 1
0.983444 1 1
1 1 1
1 1 1
