apps/android/app/src/main/assets/luts/AA2_COLOR_V.cube
TITLE "Generated by Resolve"
LUT_3D_SIZE 33
0 0 0.000793469
0 0 0.000793469
0.000228885 0 0.000198367
0.0156558 0 0
0.0359197 0 0
0.0573434 0 0
0.0828717 0 0
0.114382 0 0
0.151904 0 0
0.198215 0 0
0.257221 0 0
0.326223 0 0
0.401312 0 0
0.478706 0 0
0.555306 0 0
0.631266 0 0
0.706432 0 0
0.780377 0 0
0.85156 0 0
0.91603 0 0
0.967071 0 0
0.995727 0 0
1 0 0
1 0 0
1 0 0
1 0 0
1 0 0
1 0 0
1 0 0
1 0 0
1 0 0
1 0 0
1 0 0
0 0.000854505 0.000885023
0 0.000854505 0.000900282
0.000106813 0.000183108 0.000244144
0.0156252 0 1.5259e-05
0.0358282 0 0
0.0573434 0 0
0.0829938 0 0
0.114717 0 0
0.152605 0 0
0.1991 0 0
0.258442 0 0
0.327672 0 0
0.402914 0 0
0.480583 0 0
0.557168 0 0
0.632883 0 0
0.708049 0 0
0.781964 0 0
0.852995 0 0
0.917205 0 0
0.968002 0 0
0.996063 0 0
1 0 0
1 0 0
1 0 0
1 0 0
1 0 0
1 0 0
1 0 0
1 0 0
1 0 0
1 0 0
1 0 0
0 0.0134737 0.00103761
0 0.0136263 0.00105287
0 0.0119173 0.000320439
0.0151369 0.0103456 1.5259e-05
0.0351873 0.00886549 0
0.0568856 0.00714122 0
0.0827192 0.00503548 0
0.114778 0.00215152 0
0.152834 7.62951e-05 0
0.199908 0 0
0.259449 0 0
0.329183 0 0
0.404654 0 0
0.482094 0 0
0.558694 0 0
0.634409 0 0
0.709834 0 0
0.783475 0 0
0.854597 0 0
0.918502 0 0
0.969024 0 0
0.99646 0 0
1 0 0
1 0 0
1 0 0
1 0 0
1 0 0
1 0 0
1 0 0
1 0 0
1 0 0
1 0 0
1 0 0
0 0.0363775 0.00120546
0 0.0365301 0.00122072
0 0.0343481 0.000427253
0.0145571 0.031754 3.0518e-05
0.0345922 0.0291752 0
0.0563211 0.0263066 0
0.082414 0.022858 0
0.114794 0.0180514 0
0.153185 0.0120851 0
0.200687 0.00401312 0
0.26067 0.000167849 0
0.330694 0 0
0.406394 0 0
0.483848 0 0
0.560464 0 0
0.636194 0 0
0.711635 0 0
0.785229 0 0
0.856199 0 0
0.919799 0 0
0.970047 0 0
0.996811 0 0
1 0 0
1 0 0
1 0 0
1 0 0
1 0 0
1 0 0
1 0 0
1 0 0
1 0 0
1 0 0
1 0 0
0 0.0602579 0.00138857
0 0.0604105 0.00141909
0 0.0581521 0.000534066
0.0138705 0.0555734 1.5259e-05
0.0339666 0.0529946 0
0.055787 0.0501259 0
0.0820783 0.0466468 0
0.114778 0.0417029 0
0.153506 0.0345312 0
0.20145 0.0234226 0
0.261875 0.00790417 0
0.332189 0.000274662 0
0.408118 0 0
0.485603 0 0
0.562234 0 0
0.637964 0 0
0.713405 0 0
0.786984 0 0
0.857786 0 0
0.921096 0 0
0.971069 0 0
0.997269 0 0
1 0 0
1 0 0
1 0 0
1 0 0
1 0 0
1 0 0
1 0 0
1 0 0
1 0 0
1 0 0
1 0 0
0 0.0874342 0.00161746
0 0.0876173 0.00163272
0 0.0853437 0.000671397
0.0129244 0.082887 0
0.0331731 0.0802472 0
0.0551461 0.0773632 0
0.08159 0.07393 0
0.114641 0.0689555 0
0.153704 0.0617685 0
0.202106 0.0505379 0
0.26302 0.033051 0
0.333639 0.0080415 0
0.409796 0 0
0.487312 0 0
0.563958 0 0
0.639948 0 0
0.71516 0 0
0.788876 0 0
0.859342 0 0
0.922362 0 0
0.972061 0 0
0.997681 0 0
1 0 0
1 0 0
1 0 0
1 0 0
1 0 0
1 0 0
1 0 0
1 0 0
1 0 0
1 0 0
1 0 0
0 0.118959 0.00189212
0 0.119127 0.00189212
0 0.117357 0.000885023
0.0115663 0.115526 0
0.0319677 0.113481 0
0.0539712 0.111208 0
0.0806439 0.108431 0
0.114092 0.104234 0
0.153719 0.0979629 0
0.202518 0.0873579 0
0.264149 0.0702068 0
0.334905 0.0453498 0
0.411337 0.0144808 0
0.489143 0.00198367 0
0.56582 0 0
0.641596 0 0
0.716823 0 0
0.790463 0 0
0.860838 0 0
0.923568 0 0
0.972992 0 0
0.998093 0 0
1 0 0
1 0 0
1 0 0
1 0 0
1 0 0
1 0 0
1 0 0
1 0 0
1 0 0
1 0 0
1 0 0
0 0.157168 0.00230411
0 0.157351 0.00225834
0.000106813 0.155993 0.00120546
0.00941482 0.15462 6.10361e-05
0.0298161 0.153033 0
0.0518959 0.151415 0
0.0788281 0.149157 0
0.112917 0.145983 0
0.153033 0.140948 0
0.202457 0.132982 0
0.264698 0.11928 0
0.335988 0.0975967 0
0.412619 0.0650645 0
0.490532 0.0289616 0
0.567269 0.00579843 0
0.643091 3.0518e-05 0
0.718364 0 0
0.791928 0 0
0.86244 0 0
0.924666 0 0
0.973968 0 0
0.998505 0 0
1 0 0
1 0 0
1 0 0
1 0 0
1 0 0
1 0 0
1 0 0
1 0 0
1 0 0
1 0 0
1 0 0
0 0.203616 0.00289921
0 0.203845 0.00280766
0.000183108 0.202884 0.00170901
0.00598154 0.201953 0.000518807
0.0263523 0.200793 0
0.0484932 0.19968 0
0.0758373 0.197955 0
0.110491 0.195605 0
0.151431 0.191684 0
0.201846 0.185534 0
0.264683 0.175097 0
0.336873 0.158984 0
0.413794 0.134615 0
0.491585 0.100877 0
0.568429 0.0579538 0
0.644327 0.0249332 0
0.719921 0.00109865 0
0.793194 0 0
0.863645 0 0
0.925765 0 0
0.97464 0 0
0.998932 0 0
1 0 0
1 0 0
1 0 0
1 0 0
1 0 0
1 0 0
1 0 0
1 0 0
1 0 0
1 0 0
1 0 0
0 0.263325 0.00381476
0 0.26363 0.0037232
4.57771e-05 0.263005 0.00256352
0.00254826 0.262272 0.00129702
0.0205844 0.261723 0.000244144
0.0428321 0.260838 0
0.0703746 0.259846 0
0.105989 0.257969 0
0.148333 0.255238 0
0.199786 0.250401 0
0.26389 0.242649 0
0.33669 0.230396 0
0.414038 0.213397 0
0.492348 0.190768 0
0.56936 0.160815 0
0.645396 0.121492 0
0.720851 0.0755932 0
0.794354 0.0373388 0
0.864515 0.00386053 0
0.926406 0 0
0.975036 0 0
0.999435 0 0
1 0 0
1 0 0
1 0 0
1 0 0
1 0 0
1 0 0
1 0 0
1 0 0
1 0 0
1 0 0
1 0 0
0 0.334585 0.00523384
0 0.334936 0.00508125
0 0.334585 0.00389105
0.00111391 0.334386 0.00256352
0.0117494 0.333898 0.00120546
0.0340734 0.333333 0.000228885
0.0618143 0.332753 0
0.0988022 0.331365 0
0.142916 0.329412 0
0.196262 0.325689 0
0.261585 0.319814 0
0.33547 0.310689 0
0.413718 0.29778 0
0.492134 0.281712 0
0.569436 0.261555 0
0.645685 0.23714 0
0.721538 0.206424 0
0.794842 0.165835 0
0.865232 0.121599 0
0.92668 0.0793774 0
0.975235 0.0352331 0
0.999939 0.000106813 0
1 0 0
1 0 0
1 0 0
1 0 0
1 0 0
1 0 0
1 0 0
1 0 0
1 0 0
1 0 0
1 0 0
0 0.412467 0.00715648
0 0.413123 0.00698863
0 0.41294 0.00578317
0.000137331 0.412711 0.00440986
0.00427253 0.412436 0.00294499
0.0221866 0.41236 0.00137331
0.0501869 0.411795 0.000213626
0.0884413 0.411063 0
0.135073 0.409369 0
0.190692 0.406729 0
0.258213 0.401846 0
0.33344 0.394675 0
0.412238 0.384955 0
0.491447 0.372396 0
0.568872 0.357733 0
0.64567 0.339834 0
0.721462 0.318959 0
0.795132 0.29424 0
0.865324 0.265644 0
0.926757 0.236469 0
0.974929 0.210025 0
1 0.186801 0
1 0.169375 0
1 0.156802 0
1 0.148272 0
1 0.144167 0
1 0.141146 0
1 0.13547 0
1 0.127199 0
1 0.124681 0
1 0.126497 0
1 0.127687 0
1 0.129503 0
0 0.493828 0.00973526
0 0.49424 0.00952163
0 0.494194 0.00825513
0 0.494377 0.0068513
3.0518e-05 0.49424 0.00537118
0.0080415 0.494057 0.00367742
0.0352178 0.49395 0.00151064
0.0749371 0.493187 0.000137331
0.124575 0.492134 0
0.183169 0.489799 0
0.253223 0.48603 0
0.329976 0.480232 0
0.409827 0.472099 0
0.489723 0.462257 0
0.56791 0.450248 0
0.644816 0.436515 0
0.72108 0.42031 0
0.794705 0.401511 0
0.865202 0.381048 0
0.926238 0.360922 0
0.97438 0.342931 0
1 0.328664 0
1 0.318196 0
1 0.310918 0
1 0.306874 0
1 0.305043 0
1 0.303334 0
1 0.301015 0
1 0.297154 0
1 0.296437 0
1 0.297307 0
1 0.298604 0
1 0.299901 0
0 0.574517 0.0128939
0 0.574899 0.0126497
0 0.574929 0.0113985
0 0.574914 0.00994888
0 0.575128 0.00842298
0.00181582 0.575021 0.00669871
0.0184939 0.575036 0.00444038
0.0573892 0.574441 0.00148013
0.110918 0.573632 0.000106813
0.173846 0.571679 0
0.247105 0.56849 0
0.32578 0.563348 0
0.406882 0.556741 0
0.487617 0.548241 0
0.56611 0.538552 0
0.643732 0.527184 0
0.720058 0.513649 0
0.794141 0.498711 0
0.8645 0.482567 0
0.925612 0.466606 0
0.973388 0.453315 0
1 0.442802 0
1 0.434943 0
1 0.430121 0
1 0.42739 0
1 0.42591 0
1 0.425147 0
1 0.423636 0
1 0.421042 0
1 0.420462 0
1 0.421576 0
1 0.42269 0
1 0.423438 0
0 0.653895 0.0169985
0 0.654551 0.0166629
0 0.654627 0.0152132
0 0.654673 0.0136873
0 0.654688 0.0121309
0 0.654917 0.0103456
0.00602731 0.654749 0.0080415
0.0376898 0.654551 0.004654
0.0941634 0.653651 0.000900282
0.162509 0.652247 1.5259e-05
0.239399 0.649256 0
0.320302 0.645075 0
0.403174 0.639399 0
0.484611 0.63212 0
0.564065 0.623835 0
0.641962 0.613931 0
0.718853 0.602686 0
0.792981 0.590234 0
0.863722 0.576501 0
0.924468 0.563775 0
0.972259 0.553017 0
1 0.544427 0
1 0.538537 0
1 0.534844 0
1 0.532494 0
1 0.531777 0
1 0.531304 0
1 0.52987 0
1 0.527932 0
1 0.527977 0
1 0.529 0
1 0.529671 0
1 0.530678 0
0 0.732906 0.0217288
0 0.733288 0.0213779
0 0.733425 0.0198825
0 0.733776 0.018265
0 0.733852 0.016556
0 0.733883 0.014725
0 0.734035 0.012314
0.0187533 0.733684 0.00883497
0.0733501 0.733196 0.00363165
0.148669 0.731762 3.0518e-05
0.230442 0.729366 0
0.314061 0.725734 0
0.398428 0.720546 0
0.481239 0.714443 0
0.561486 0.706966 0
0.639963 0.698634 0
0.716991 0.688945 0
0.791684 0.677928 0
0.862364 0.666514 0
0.923201 0.655756 0
0.970672 0.646494 0
1 0.639673 0
1 0.634897 0
1 0.631632 0
1 0.630076 0
1 0.629602 0
1 0.628977 0
1 0.628168 0
1 0.626642 0
1 0.626871 0
1 0.627512 0
1 0.628458 0
1 0.629419 0
0 0.810712 0.0269474
0 0.811078 0.0264744
0 0.811246 0.0249943
0 0.811368 0.0234073
0 0.811734 0.0216983
0 0.811795 0.0197604
0 0.811734 0.0173037
0.00321965 0.811704 0.0137026
0.0493629 0.811063 0.00849927
0.132464 0.81004 0.00111391
0.219684 0.807935 0.000167849
0.306859 0.804456 0
0.393194 0.800092 0
0.477012 0.794446 0
0.558145 0.788083 0
0.637263 0.780713 0
0.715023 0.771878 0
0.789807 0.762509 0
0.860929 0.752239 0
0.92166 0.742931 0
0.968978 0.735241 0
0.999039 0.729198 0
1 0.725155 0
1 0.722698 0
1 0.721157 0
1 0.720851 0
1 0.720653 0
1 0.720012 0
1 0.718456 0
1 0.718791 0
1 0.719676 0
1 0.720577 0
1 0.721172 0
0 0.885969 0.0324865
0 0.886336 0.0319524
0 0.886503 0.0304723
0 0.886656 0.0288396
0 0.887022 0.0271916
0 0.887114 0.0252384
0 0.887343 0.0227207
0 0.887098 0.0191196
0.0247501 0.886793 0.0138247
0.112871 0.885634 0.00567636
0.207797 0.883741 0.000595102
0.298482 0.880613 0
0.387076 0.876692 0
0.472557 0.871839 0
0.554696 0.865888 0
0.634485 0.85919 0
0.712505 0.85127 0
0.787915 0.842817 0
0.859251 0.833875 0
0.919707 0.825376 0
0.966842 0.818555 0
0.996765 0.813489 0
1 0.809674 0
1 0.807523 0
1 0.806439 0
1 0.806165 0
1 0.805707 0
1 0.805112 0
1 0.803967 0
1 0.804044 0
1 0.804822 0
1 0.8056 0
1 0.806378 0
0 0.956039 0.0380713
0 0.956268 0.0374762
0 0.956374 0.0360571
0 0.956634 0.0344244
0 0.956695 0.0326848
0 0.956741 0.0307927
0 0.956863 0.0282444
0 0.956588 0.0246281
0.000991836 0.956191 0.0192569
0.0903944 0.955001 0.0106813
0.195056 0.953124 0.00141909
0.290074 0.950149 3.0518e-05
0.381094 0.94641 0
0.468071 0.941817 0
0.550927 0.936263 0
0.631693 0.930007 0
0.710216 0.922881 0
0.786038 0.91487 0
0.857359 0.906661 0
0.917967 0.898848 0
0.964538 0.892668 0
0.994614 0.887999 0
1 0.884535 0
1 0.882536 0
1 0.881483 0
1 0.881178 0
1 0.88072 0
1 0.880095 0
1 0.878965 0
1 0.879042 0
1 0.879667 0
1 0.880308 0
1 0.880934 0
0 1 0.0429999
0 1 0.0423438
0 1 0.0408484
0 1 0.0392004
0 1 0.0375372
0 1 0.0355688
0 0.999969 0.033051
0 0.999603 0.0293278
0 0.998978 0.0239872
0.0704051 0.997971 0.0149691
0.183673 0.996475 0.0040589
0.283131 0.99443 0.000366217
0.376349 0.991913 0
0.464332 0.988922 0
0.548318 0.985641 0
0.629389 0.981979 0
0.708629 0.977691 0
0.784512 0.971817 0
0.85626 0.964019 0
0.916533 0.956741 0
0.962829 0.950927 0
0.992966 0.946548 0
1 0.943282 0
1 0.94136 0
1 0.940322 0
1 0.939803 0
1 0.939467 0
1 0.938796 0
1 0.937652 0
1 0.937713 0
1 0.938216 0
1 0.93872 0
1 0.939055 0
0 1 0.0471046
0 1 0.0463874
0 1 0.0449073
0 1 0.0432441
0 1 0.0415656
0 1 0.0395819
0 1 0.0369726
0 1 0.0332799
0.000732433 1 0.0277562
0.0547799 1 0.018677
0.174899 1 0.00691234
0.277623 1 0.000762951
0.372686 1 0
0.461997 1 0
0.546685 1 0
0.628199 1 0
0.7075 0.999878 0
0.783902 0.99826 0
0.855756 0.9953 0
0.915846 0.992767 0
0.961654 0.990768 0
0.991882 0.989441 0
1 0.987961 0
1 0.986038 0
1 0.984985 0
1 0.984588 0
1 0.984176 0
1 0.983322 0
1 0.982132 0
1 0.982315 0
1 0.982574 0
1 0.982956 0
1 0.983352 0
0 1 0.0503548
0 1 0.0495918
0 1 0.0481575
0 1 0.0464942
0 1 0.0447395
0 1 0.0428016
0 1 0.040177
0 1 0.0364385
0.00120546 1 0.0307622
0.0441444 1 0.021561
0.168566 1 0.00900282
0.27425 1 0.00114443
0.370718 1 0
0.460822 1 0
0.545968 1 0
0.627817 1 0
0.707378 1 0
0.783932 1 0
0.855619 1 0
0.915724 1 0
0.960876 1 0
0.991241 1 0
1 0.999847 0
1 0.999619 0
1 0.999481 0
1 0.999451 0
1 0.999451 0
1 0.999405 0
1 0.999374 0
1 0.999466 0
1 0.999573 0
1 0.999649 0
1 0.999756 0
0 1 0.0528878
0 1 0.0520485
0 1 0.0505379
0 1 0.0489509
0 1 0.0471962
0 1 0.045182
0 1 0.0425879
0 1 0.0387427
0.000961318 1 0.0330205
0.0379034 1 0.0235752
0.164599 1 0.0105287
0.272755 1 0.00144961
0.370199 1 0
0.460472 1 0
0.545892 1 0
0.628 1 0
0.707973 1 0
0.78439 1 0
0.856306 1 0
0.916136 1 0
0.960739 1 0
0.991043 1 0
1 1 0
1 1 0
1 1 0
1 1 0
1 1 0
1 1 0
1 1 0
1 1 0
1 1 0
1 1 0
1 1 0
0 1 0.0547494
0 1 0.0538491
0 1 0.0523384
0 1 0.05066
0 1 0.0489662
0 1 0.0469368
0 1 0.0443122
0 1 0.0404212
0.000518807 1 0.0345464
0.0354925 1 0.024979
0.163546 1 0.0114595
0.272633 1 0.00167849
0.370611 1 0
0.461463 1 0
0.546944 1 0
0.629191 1 0
0.709209 1 0
0.785657 1 0
0.857511 1 0
0.916594 1 0
0.961044 1 0
0.991104 1 0
1 1 0
1 1 0
1 1 0
1 1 0
1 1 0
1 1 0
1 1 0
1 1 0
1 1 0
1 1 0
1 1 0
0 1 0.0560006
0 1 0.0551003
0 1 0.0535897
0 1 0.0519265
0 1 0.0501411
0 1 0.0481727
0 1 0.0454566
0 1 0.0415656
0.000106813 1 0.035523
0.0356909 1 0.0259251
0.164355 1 0.0119783
0.273991 1 0.00181582
0.372198 1 0
0.463111 1 0
0.548547 1 0
0.630854 1 0
0.710613 1 0
0.787305 1 0
0.858824 1 0
0.917464 1 0
0.961654 1 0
0.991409 1 0
1 1 0
1 1 0
1 1 0
1 1 0
1 1 0
1 1 0
1 1 0
1 1 0
1 1 0
1 1 0
1 1 0
0 1 0.0570535
0 1 0.0560311
0 1 0.0545815
0 1 0.0529183
0 1 0.051133
0 1 0.0491493
0 1 0.0464179
0 1 0.0424506
0 1 0.0363012
0.0386969 1 0.0265812
0.166125 1 0.0123598
0.275975 1 0.00189212
0.374243 1 0
0.465126 1 0
0.550164 1 0
0.632761 1 0
0.712505 1 0
0.789136 1 0
0.860533 1 0
0.918486 1 0
0.96228 1 0
0.991836 1 0
1 1 0
1 1 0
1 1 0
1 1 0
1 1 0
1 1 0
1 1 0
1 1 0
1 1 0
1 1 0
1 1 0
0 1 0.0581674
0 1 0.057084
0 1 0.0555581
0 1 0.0539559
0 1 0.0521859
0 1 0.0501259
0 1 0.0474403
0 1 0.0433204
0 1 0.037171
0.0418708 1 0.0272221
0.167285 1 0.0128328
0.277806 1 0.00195315
0.376181 1 0
0.466712 1 0
0.55198 1 0
0.634607 1 0
0.714305 1 0
0.790661 1 0
0.862196 1 0
0.919463 1 0
0.962982 1 0
0.992248 1 0
1 1 0
1 1 0
1 1 0
1 1 0
1 1 0
1 1 0
1 1 0
1 1 0
1 1 0
1 1 0
1 1 0
0 1 0.0594797
0 1 0.0583505
0 1 0.0568246
0 1 0.0551614
0 1 0.0534524
0 1 0.0513771
0 1 0.048661
0 1 0.0444648
0 1 0.0382391
