apps/android/app/src/main/assets/luts/AA2_COLOR_V.cube
TITLE "Generated by Resolve"
LUT_3D_SIZE 5
0 0 0.000793469
0.151904 0 0
0.706432 0 0
1 0 0
1 0 0
0 0.203616 0.00289921
0.151431 0.191684 0
0.719921 0.00109865 0
1 0 0
1 0 0
0 0.810712 0.0269474
0.0493629 0.811063 0.00849927
0.715023 0.771878 0
1 0.721157 0
1 0.721172 0
0 1 0.0560006
0.000106813 1 0.035523
0.710613 1 0
1 1 0
1 1 0
0 1 0.0632486
0 1 0.0406348
0.726482 1 0
1 1 0
1 1 0
0 0 0.191867
0.134417 0 0.184985
0.704067 0 0.0374151
1 0 0
1 0 0
0 0.184604 0.204059
0.132311 0.170825 0.197864
0.717266 7.62951e-05 0.0542458
1 0 0
1 0 0
0 0.807141 0.22948
0.0215305 0.807355 0.223499
0.711833 0.767605 0.0923934
1 0.71696 0
1 0.716442 0
0 1 0.253895
0 1 0.247639
0.707134 1 0.128191
1 1 0
1 1 0
0 1 0.268193
0 1 0.261524
0.722698 1 0.147509
1 1 0.00920119
1 1 0.010605
0 0 0.730983
0 0 0.732723
0.666545 0 0.707378
1 0 0.669688
1 0 0.670146
0 0 0.746303
0 0 0.747799
0.679042 0 0.721569
1 0 0.686107
1 0 0.686702
0 0.761425 0.765332
0 0.76144 0.766705
0.671687 0.718227 0.739986
1 0.662928 0.707042
1 0.661997 0.70808
0 1 0.784512
0 1 0.785626
0.665614 1 0.758679
1 1 0.727916
1 1 0.729458
0 1 0.800916
0 1 0.801801
0.680919 1 0.774121
1 1 0.745541
1 1 0.746975
0 0 1
0 0 1
0.624567 0 1
1 0 0.980392
1 0 0.977432
0 0 1
0 0 1
0.639902 0 1
1 0 0.98175
1 0 0.978988
0 0.716045 1
0 0.71667 1
0.633753 0.670787 1
0.999435 0.612055 0.985641
1 0.611704 0.983108
0 1 1
0 1 1
0.629389 1 1
0.98616 0.988144 0.989364
1 0.984237 0.986847
0 1 1
0 1 1
0.647364 1 1
0.985702 1 0.990555
1 1 0.988159
0 0 1
0 0 1
0.622538 0 1
1 0 1
1 0 1
0 0 1
0 0 1
0.637781 0 1
1 0 1
1 0 1
0 0.713436 1
0 0.714107 1
0.631785 0.667903 1
0.99707 0.609049 1
1 0.608881 1
0 1 1
0 1 1
0.627848 1 1
0.98378 0.984955 1
1 0.981094 1
0 1 1
0 1 1
0.646174 1 1
0.983444 1 1
1 1 1
